icon/pk/reject.svg

<svg viewBox="0 0 48 48" fill="none" xmlns="http://www.w3.org/2000/svg" height="1em" width="1em">
  <path d="M19.0099 42H9C7.34315 42 6 40.6569 6 39V9C6 7.34315 7.34315 6 9 6H39C40.6569 6 42 7.34315 42 9V19.0304" stroke="black" stroke-width="4" stroke-linecap="round" stroke-linejoin="round"/>
  <path d="M42 29.0347V41.0001C42 41.5524 41.5523 42.0001 41 42.0001H29.037" stroke="black" stroke-width="4" stroke-linecap="round" stroke-linejoin="round"/>
  <path d="M42 29.0347H18" stroke="black" stroke-width="4" stroke-linecap="round" stroke-linejoin="round"/>
  <path d="M23 23L17 29L23 35" stroke="black" stroke-width="4" stroke-linecap="round" stroke-linejoin="round"/>
</svg>

<svg width="48" height="48" fill="none" xmlns="http://www.w3.org/2000/svg"><path d="M19.01 42H9a3 3 0 0 1-3-3V9a3 3 0 0 1 3-3h30a3 3 0 0 1 3 3v10.03M42 29.035V41a1 1 0 0 1-1 1H29.037M42 29.035H18" stroke="#000" stroke-width="4" stroke-linecap="round" stroke-linejoin="round"/><path d="m23 23-6 6 6 6" stroke="#000" stroke-width="4" stroke-linecap="round" stroke-linejoin="round"/></svg>
